X:65
T:65 A Jigg Ashling
C:Welch MS
I:abc2nwc
M:6/8
L:1/8
K:G
G2B AcA|B2d cec|dgf edc|BAG FED G2B AcA|B2d cec|dgf ed^c|ddd d3:|
e2c AcA|d2B GBG|cde EFG|AcG FED|BAG cBA|dcB efg|dcB AGF|GGG G3:|


